X: 1
T: Bunratty Boys
M: 12/8
L: 1/8
R: slide
K: Dmaj
|:e2e efe dcd a2f|ede f2e d2c B2A|
e2e efe dcd a2f|1ede f2e d3 dcd:|2ede f2e d3 dcB||
|:A2a f2a A2a f2a|ede f2e d2c B2A|
A2a f2a A2a f2a|1ede f2e d3 dcB:|2ede f2e ddd d3||
